X: 422
T: Jollity
S: MS of Walter Rainstorp 1747++ 
S: https://brbl-dl.library.yale.edu/vufind/Record/3444369
F: https://brbl-dl.library.yale.edu/pdfgen/exportPDF.php?bibid=2057949&solrid=3444369
R: jig
Z: 2019 John Chambers <jc:trillian.mit.edu>
M: 6/8
L: 1/8
K: Bb
F |\
BcB F2E | D2F B3- | Bcd cdB | ABG F2A |\
BcB F2E | D2F B3- | Bcd cdB | f3  F2 :|
|: z |\
ded ded | e2d cdc | ded cdB | ABG FBc |\
ded ded | efg f2e | dcB FBA | B3 B,3 :|
%%begintext align
%% [no dance]
%%endtext
